!!!!SEGMENT: pl-kk--kk-i-88--002-003_golabek-jakub--missa-2-et-in-terra.krn
!!!cenid: 17xx:2577
!!!COM: Gołąbek, Jakub
!!!COM-rismID: pe30008748
!!!CDT: 1739-1789/03/30
!!!CNT: Polish
!!!OPR: Missa 2
!!!OTL: Et in terra
!!!OMV: 003
!!!PDT:
!!!AGN: Sacred; Mass
!!!YEC: Copyright 2022 Narodowy Instytut Fryderyka Chopina (https://polishscores.org)
!!!YEM: License CC-BY-4.0 (https://creativecommons.org/licenses/by/4.0)
!!!SMS-siglum: PL-Kk
!!!SMS-shelfmark: Kk.I.88
!!!SMS-variant:
!!!SMS-altvar:
!!!SMS-shelfwork: 002-003 M
!!!NIFC-rismSourceID: 1001164072
!!!NIFC-rismChildID: 1001164081
!!!NIFC-islandoraID:
!!!URL-pdf-islandora: https://repozytorium.nifc.pl/islandora/object/pl-kk%3A3086/datastream/PDF/view
!!!URL-scan: https://polish.musicsources.pl/pl/lokalizacje/galeria/rekopisy/6148-missa/4 @EN{Scan on Polish Music Sources Website} @PL{Skany w portalu Dziedzictwo Muzyki Polskiej w otwartym dostępie}
!!!IIIF:
!!!ONB-nifc: UWAGA: C - f. 4r-5v; A - f. 12r-13v; T - f. 20r-21v; B - f. 28r-29v; B rip - f. 34r-35v. Proszę uwzględniać B rip. Części Mszy: 1. Kyrie, 2. Christe, 3. Et in terra, 4. Sanctus, 5. Osanna, 6. Benedictus, 7. Agnus Dei.
!!!OMD:
!!!AIN: 1 alto 2 bass 1 canto 1 tenor
!!!key: F
**kern	**text	**kern	**text	**kern	**text	**kern	**text	**kern	**text
*part5	*part5	*part4	*part4	*part3	*part3	*part2	*part2	*part1	*part1
*staff5	*staff5	*staff4	*staff4	*staff3	*staff3	*staff2	*staff2	*staff1	*staff1
*I"Baſso E ripieno	*	*I"Baſso	*	*I"Tenore	*	*I"Alto	*	*I"Canto	*
*I'B rip	*	*I'B	*	*I'T	*	*I'A	*	*I'S	*
*Ibass	*	*Ibass	*	*Itenor	*	*Ialto	*	*Icanto	*
*ICvox	*	*ICvox	*	*ICvox	*	*ICvox	*	*ICvox	*
*clefF4	*	*clefF4	*	*clefC4	*	*clefC3	*	*clefC1	*
*k[b-]	*	*k[b-]	*	*k[b-]	*	*k[b-]	*	*k[b-]	*
*F:	*	*F:	*	*F:	*	*F:	*	*F:	*
*M2/2	*	*M2/2	*	*M2/2	*	*M2/2	*	*M2/2	*
*met(c|)	*	*met(c|)	*	*met(c|)	*	*met(c|)	*	*met(c|)	*
=1	=1	=1	=1	=1	=1	=1	=1	=1	=1
4F\	Et	4F\	Et	4c\	Et	4c\	Et	4a\	Et
4F\	in	4F\	in	4B-\	in	4d\	in	4b-\	in
4F\	ter-	4F\	ter-	4A\	ter-	4c\	ter-	4a\	ter-
4E\	-ra	4E\	-ra	4G\	-ra	8d\L	-ra	8b-\L	-ra
.	.	.	.	.	.	8e\J	.	8g\J	.
=2	=2	=2	=2	=2	=2	=2	=2	=2	=2
*2\right	*	*2\right	*	*	*	*2\right	*	*2\right	*
2F\	pax	2F\	pac	2A/	pax	2f\	pax	2a\	pax
2C/	ho-	2C/	ho-	2G/	ho-	2g\	ho-	2b-\	ho-
=3	=3	=3	=3	=3	=3	=3	=3	=3	=3
4.F\	-mi-	4.F\	-mi-	4.A\	-mi-	4.a\	-mi-	4.cc\	-mi-
8G\	-ni-	8G\	-ni-	8B-\	-ni-	8g\	-ni-	8b-\	-ni-
*	*	*	*	*2\right	*	*	*	*	*
2A\	-bus	2A\	-bus	2c\	-bus	2f\	-bus	2a\	-bus,
=4	=4	=4	=4	=4	=4	=4	=4	=4	=4
4E\	bo-	4E\	bo-	4c\	bo-	4g\	bo-	4b-\	bo-
4E\	-nae	4E\	-nae	4c\	-nae	4g\	-nae	4b-\	-nae
8F\L	vo-	8F\L	vo-	4c\	vo-	4f\	vo-	4a\	vo-
8G\J	.	8G\J	.	.	.	.	.	.	.
8A\L	-lun-	8A\L	-lun-	4c\	-lun-	4f\	-lun-	4a\	-lun-
8B-\J	.	8B-\J	.	.	.	.	.	.	.
=5	=5	=5	=5	=5	=5	=5	=5	=5	=5
4c\	-ta-	4c\	-ta-	4c\	-ta-	4f\	-ta-	4a\	-ta-
4C/	-tis.	4C/	-tis.	4c\	-tis.	4e\	-tis,	4g\	-tis
4r	.	4r	.	4r	.	4r	.	4r	.
4C/	Lau-	4C/	Lau-	4c\	Lau-	8e\L	Lau-	8g\L	Lau-
.	.	.	.	.	.	8f\J	.	8a\J	.
!	!	!LO:LB:g=original	!	!	!	!	!	!	!
=6	=6	=6	=6	=6	=6	=6	=6	=6	=6
4C/	-da-	4C/	-da-	2c\	-da-	4g\	-da-	4b-\	-da-
4D/	.	4D/	.	.	.	4f\	.	4a\	.
4E/	.	4E/	.	2c\	-mus	4e\	.	4g\	.
4C/	-mus	4C/	-mus	.	.	4g\	-mus	4b-\	-mus
!	!	!	!	!LO:LB:g=original	!	!LO:LB:g=original	!	!LO:LB:g=original	!
=7	=7	=7	=7	=7	=7	=7	=7	=7	=7
2F\	te,	2F\	te,	2c\	te,	2f\	te,	2a\	te,
4F\	be-	4F\	be-	4A\	be-	4f\	be-	4dd\	be-
4F#X\	-ne-	4F#X\	-ne-	4A\	-ne-	4e\	-ne-	4cc\	-ne-
!LO:LB:g=original	!	!	!	!	!	!	!	!	!
=8	=8	=8	=8	=8	=8	=8	=8	=8	=8
2G\	-di-	2G\	-di-	4d\	-di-	4d\	-di-	4bn\	-di-
.	.	.	.	4c\	.	4e\	.	4cc\	.
4G\	-ci-	4G\	-ci-	4Bn\	-ci-	4f\	-ci-	4dd\	-ci-
4G\	-mus	4G\	-mus	4c\	-mus	4e\	-mus	4cc\	-mus
=9	=9	=9	=9	=9	=9	=9	=9	=9	=9
!	!	!	!	!	!	!	!	!LO:SIC:v:s=2bn\	!
2G\	te,	2G\	te,	2G/	te,	2d\	te,	2b-\	te,
4Bn\	a-	4Bn\	a-	4G/	a-	4f\	a-	4dd\	a-
!	!	!	!	!	!	!	!	!LO:SIC:v:s=4bn\	!
4G\	-do-	4G\	-do-	4Bn/	-do-	4d\	-do-	4b-\	-do-
=10	=10	=10	=10	=10	=10	=10	=10	=10	=10
4c\	-ra-	4c\	-ra-	4G/	-ra-	4g\	-ra-	4ee\	-ra-
4G\	-mus	4G\	-mus	4G/	-mus	4f\	-mus	4dd\	-mus
4E\	te,	4E\	te,	4G/	te,	4e\	te	4cc\	te
4C/	glo-	4C/	glo-	4G/	glo-	4g\	glo-	4ee\	glo-
=11	=11	=11	=11	=11	=11	=11	=11	=11	=11
2G\	-ri-	2G\	-ri-	2Bn\	-ri-	4f\	-ri-	4dd\	-ri-
.	.	.	.	.	.	4e\	.	4cc\	.
2G\	-fi-	2G\	-fi-	2G/	-fi-	(4f\	-fi-	4dd\	.
.	.	.	.	.	.	4d\)	.	4bn\	-fi-
=12	=12	=12	=12	=12	=12	=12	=12	=12	=12
4C/	-ca-	4C\	-ca-	1G	-ca-	4e\	-ca-	4cc\	-ca-
4D/	.	4D\	.	.	.	4f\	.	4b-\	.
4E\	.	4E\	.	.	.	4g\	.	4cc\	.
4F\	.	4F\	.	.	.	4f\	.	4dd\	.
=13	=13	=13	=13	=13	=13	=13	=13	=13	=13
2G\	.	2G\	.	2G/	.	2e\	.	2cc\	.
2G\	-mus	2G\	-mus	2G/	-mus	2d\	-mus	2bn\	-mus
!	!	!LO:LB:g=original	!	!	!	!	!	!LO:LB:g=original	!
=14	=14	=14	=14	=14	=14	=14	=14	=14	=14
2C/	te	2C/	te	2G/	te	2e\	te	2cc\	te
2r	.	2r	.	2r	.	2r	.	2r	.
!	!	!	!	!LO:LB:g=original	!	!LO:LB:g=original	!	!	!
=15	=15	=15	=15	=15	=15	=15	=15	=15	=15
4.C/	Gra-	4.C/	Gra-	4.G/	Gra-	4.g\	Gra-	4.ee\	Gra-
8D/	-ti-	8D/	-ti-	8G/	-ti-	8f\	-ti-	8dd\	-ti-
2E\	-as	2E\	-as	2G/	-as	2e\	-as	2cc\	-as
=16	=16	=16	=16	=16	=16	=16	=16	=16	=16
4.G\	a-	4.G\	a-	4.Bn\	a-	4.f\	a-	4.dd\	a-
8G\	-gi-	8G\	-gi-	8B\	-gi-	8e\	-gi-	8cc\	-gi-
2G\	-mus	2G\	-mus	2B\	-mus	2d\	-mus	2bn\	-mus
!LO:LB:g=original	!	!	!	!	!	!	!	!	!
=17	=17	=17	=17	=17	=17	=17	=17	=17	=17
2C/	a-	2C/	a-	2G/	a-	4e\	a-	4cc\	a-
.	.	.	.	.	.	8f\L	.	8dd\L	.
.	.	.	.	.	.	8g\J	.	8ee\J	.
4BBn/	-gi-	4BBn/	-gi-	4G/	-gi-	4f\	-gi-	4dd\	-gi-
4C/	-mus	4C/	-mus	4G/	-mus	4e\	-mus	4cc\	-mus
=18	=18	=18	=18	=18	=18	=18	=18	=18	=18
2G\	ti-	2G\	ti-	2G/	ti-	2e\	ti-	2cc\	ti-
2G\	-bi	2G\	-bi	2G/	-bi	2d\	-bi	2bn\	-bi
=19	=19	=19	=19	=19	=19	=19	=19	=19	=19
4G\	prop-	4G\	pro-	4Bn\	pro-	2f\	p(ro)p-	2dd\	p(ro)p-
4A\	.	4A\	.	4c\	.	.	.	.	.
!	!	!	!	!	!	!	!	!LO:SIC:v:s=2bn\	!
4Bn\	-ter	4Bn\	-pter	4d\	-pter	2d\	-ter	2b-\	-ter
4G\	.	4G\	.	4B\	.	.	.	.	.
=20	=20	=20	=20	=20	=20	=20	=20	=20	=20
4c\	ma-	4c\	ma-	2G/	m(a)-	4g\	ma-	4ee\	ma-
4G\	.	4G\	.	.	.	4f\	.	4dd\	.
4E\	.	4E\	.	2G/	-gnam	2e\	-gnam	2cc\	-gnam
4C/	-gnam	4C/	-gnam	.	.	.	.	.	.
!	!	!	!	!	!	!	!	!LO:PB:g=original	!
=21	=21	=21	=21	=21	=21	=21	=21	=21	=21
2BBn/	glo-	2BBn/	glo-	2G/	glo-	2f\	glo-	2dd\	glo-
4C/	-ri-	4C/	-ri-	4G/	-ri-	4e\	-ri-	4cc\	-ri-
4C/	-am	4C/	-am	4G/	-am	4e\	-am	4cc\	-am
!	!	!LO:PB:g=original	!	!LO:LB:g=original	!	!LO:PB:g=original	!	!	!
=22	=22	=22	=22	=22	=22	=22	=22	=22	=22
2G\	tu-	2G\	tu-	1G	tu-	1d	tu-	2cc\	tu-
2GG/	.	2GG/	.	.	.	.	.	2bn\	.
=23	=23	=23	=23	=23	=23	=23	=23	=23	=23
2C/	-am.	2C/	-am.	2G/	-am	2e\	-am.	2cc\	-am
2r	.	2r	.	2r	.	2r	.	2r	.
=24	=24	=24	=24	=24	=24	=24	=24	=24	=24
4F\	Do-	4F\	Do-	2c\	Do-	4f\	Do-	2a\	Do-
4c\	.	4c\	.	.	.	4c\	.	.	.
4A\	-mi-	4A\	-mi-	4c\	-mi-	4A/	-mi-	4f/	-mi-
4G\	-ne	4G\	-ne	4c\	-ne	4B-/	-ne	4g/	-ne
=25	=25	=25	=25	=25	=25	=25	=25	=25	=25
2F\	De-	2F\	De-	2c\	De-	4c/	De-	4a\	De-
.	.	.	.	.	.	4d/	.	4b-\	.
2F\	-us	2F\	-us	2c\	-us	2c/	-us	2a\	-us
!LO:LB:g=original	!	!	!	!	!	!	!	!	!
=26	=26	=26	=26	=26	=26	=26	=26	=26	=26
2BB-/	rex	2BB-/	rex	2d\	rex	4d\	rex	4b-\	rex
.	.	.	.	.	.	4f\	.	4a\	.
2C/	cae-	2C/	cae-	4c\	cae-	4e\	cae-	4g\	cae-
.	.	.	.	4e\	.	4g\	.	4b-\	.
=27	=27	=27	=27	=27	=27	=27	=27	=27	=27
2F\	-les-	2F\	-les-	2c\	-les-	8g\L	-les-	8b-\L	-les-
.	.	.	.	.	.	8f\	.	8a\	.
.	.	.	.	.	.	8e\	.	8g\	.
.	.	.	.	.	.	8f\J	.	8a\J	.
2F\	-tis	2F\	-tis	2c\	-tis	2f\	-tis.	2a\	-tis
=28	=28	=28	=28	=28	=28	=28	=28	=28	=28
4F\	De-	4F\	De-	2c\	De-	2a\	De-	2ff\	De-
4G\	.	4G\	.	.	.	.	.	.	.
4A\	.	4A\	.	2c\	-us	2a\	-us	2ff\	-us
4F\	-us	4F\	-us	.	.	.	.	.	.
!	!	!LO:LB:g=original	!	!	!	!	!	!LO:LB:g=original	!
=29	=29	=29	=29	=29	=29	=29	=29	=29	=29
2C/	Pa-	2C/	Pa-	2c\	Pa-	8g\L	Pa-	8ee\L	Pa-
.	.	.	.	.	.	8a\	.	8ff\	.
.	.	.	.	.	.	8g\	.	8ee\	.
.	.	.	.	.	.	8f\J	.	8dd\J	.
4E/	-ter	4E\	-ter	4G/	-ter	4e\	-ter	4cc\	-ter
4C/	om-	4C/	om-	4G/	om-	4g\	om-	4ee\	om-
!	!	!	!	!	!	!LO:LB:g=original	!	!	!
=30	=30	=30	=30	=30	=30	=30	=30	=30	=30
2G\	-ni-	2G\	-ni-	2Bn\	-ni-	2f\	-ni-	2dd\	-ni-
2G\	-po-	2G\	-po-	2G/	-po-	2d\	-po-	2bn\	-po-
=31	=31	=31	=31	=31	=31	=31	=31	=31	=31
2C/	-tens.	2C/	-tens.	2G/	-tens	2e\	-tens.	2cc\	-tens.
2r	.	2r	.	2r	.	2r	.	2r	.
!	!	!	!	!LO:PB:g=original	!	!	!	!	!
=32	=32	=32	=32	=32	=32	=32	=32	=32	=32
4C/	Do-	4C/	Do-	2c\	Do-	4e\	Do-	4ee\	Do-
4D/	.	4D/	.	.	.	4f\	.	4dd\	.
4E/	-mi-	4E/	-mi-	4c\	-mi-	4g\	-mi-	4cc\	-mi-
4C/	-ne	4C/	-ne	4c\	-ne	4e\	-ne	4ee\	-ni
=33	=33	=33	=33	=33	=33	=33	=33	=33	=33
4F\	Fi-	4F\	Fi-	4A\	Fi-	4f\	Fi-	2cc\	Fi-
4E\	.	4E\	.	4B-\	.	4g\	.	.	.
2F\	-li	2F\	-li	2c\	-li	2a\	-li	2cc\	-li
=34	=34	=34	=34	=34	=34	=34	=34	=34	=34
2F\	u-	2F\	u-	2c\	u-	2a\	u-	2cc\	u-
4E\	.	4E\	.	4B-X\	.	4g\	.	2cc\	-ni
4F\	-ni-	4F\	-ni-	4A\	-ni-	4f\	-ni-	.	.
=35	=35	=35	=35	=35	=35	=35	=35	=35	=35
4.C/	-ge-	4.C/	-ge-	4.G/	-ge-	4.e\	-ge-	4cc\	ge-
.	.	.	.	.	.	.	.	4cc\	-ni-
8D/	-ni-	8D/	-ni-	8G/	-ni-	8f\	-ni-	.	.
2E\	-te	2E\	-te	2G/	-te	2g\	-te	2cc\	-te
!LO:LB:g=original	!	!LO:LB:g=original	!	!	!	!	!	!	!
=36	=36	=36	=36	=36	=36	=36	=36	=36	=36
2G\	Je-	2G\	Je-	2c\	Je-	2b-\	Je-	2ee\	Je-
2F\	-su	2F\	-su	2c\	-su	2a\	-su	2cc\	-su
=37	=37	=37	=37	=37	=37	=37	=37	=37	=37
2c\	Chri-	2c\	Chri-	1c	Chri-	2a\	Chri-	2cc\	Chri-
2C/	.	2C/	.	.	.	2g\	.	2b-\	.
!	!	!	!	!	!	!	!	!LO:LB:g=original	!
=38	=38	=38	=38	=38	=38	=38	=38	=38	=38
2F\	-ste.	2F\	-ste.	2c\	-ste.	2f\	-ste	2a\	-ste.
4F#X\	Do-	4F#X\	Do-	4A/	Do-	4d\	Do-	4cc\	Do-
8F#\	-mi-	8F#\	-mi-	8A/	-mi-	8d\	-mi-	8cc\	-mi-
8F#\	-ne	8F#\	-ne	8A/	-ne	8d\	-ne	8cc\	-ne
!	!	!	!	!LO:LB:g=original	!	!LO:LB:g=original	!	!	!
=39	=39	=39	=39	=39	=39	=39	=39	=39	=39
4G\	De-	4G\	De-	4G/	De-	4d\	De-	4b-\	De-
4G\	-us	4G\	-us	4G/	-us	4d\	-us	4b-\	-us
4E\	a-	4E\	a-	4G/	a-	4c\	a-	4b-\	a-
4E\	-gnus	4E\	-gnus	4G/	-gnus	4c\	-gnus	4b-\	-gnus
=40	=40	=40	=40	=40	=40	=40	=40	=40	=40
4Fn\	De-	4Fn\	De-	4F/	De-	4c\	De-	4a\	De-
4F\	-i	4F\	-i	4F/	-i	4c\	-i	4a\	-i
4c\	Fi-	4c\	Fi-	4B-\	Fi-	4e\	Fi-	4g\	Fi-
8A\	-li-	8A\	-li-	8A\	-li-	8f\	-li-	8a\	-li-
8F\	-us	8F\	-us	8A\	-us	8f\	-us	8a\	-us
=41	=41	=41	=41	=41	=41	=41	=41	=41	=41
1C	Pa-	1C	Pa-	1c	Pa-	2f\	Pa-	2a\	Pa-
.	.	.	.	.	.	2e\	.	2g\	.
=42	=42	=42	=42	=42	=42	=42	=42	=42	=42
2F\	-tris.	2F\	-tris.	2c\	-tris	2f\	-tris,	2a\	-tris,
2D\	Qui-	2D\	Qui-	2A\	qui-	2f\	qui-	2a\	qui-
!	!	!LO:LB:g=original	!	!	!	!	!	!	!
=43	=43	=43	=43	=43	=43	=43	=43	=43	=43
2C#X/	-tol-	2C#X/	-tol-	2G/	-tol-	2e\	-tol-	2b-X\	-tol-
4C#/	-lis	4C#/	-lis	4G/	-lis	4e\	-lis	4b-\	-lis
4C#/	pec-	4C#/	pec-	4G/	pec-	4e\	pec-	4b-\	pec-
=44	=44	=44	=44	=44	=44	=44	=44	=44	=44
4D\	-ca-	4D\	-ca-	4d\	-ca-	4f\	-ca-	2a\	-ca-
4E\	.	4E\	.	4c#X\	.	4e\	.	.	.
4F\	.	4F\	.	4d\	-ta	4f\	-ta	2a\	-ta
4G\	-ta	4G\	-ta	4c#\	.	4e\	.	.	.
!LO:LB:g=original	!	!	!	!	!	!	!	!LO:LB:g=original	!
=45	=45	=45	=45	=45	=45	=45	=45	=45	=45
2A\	mun-	2A\	mun-	2A/	mun-	2f\	mun-	2dd\	mun-
2AA/	-di	2AA/	-di	2A/	-di	2e\	-di	2cc#X\	-di
!	!	!	!	!LO:LB:g=original	!	!LO:LB:g=original	!	!	!
=46	=46	=46	=46	=46	=46	=46	=46	=46	=46
2.B-\	mi-	2.B-\	mi-	2.G/	mi-	2.e\	mi-	2.cc\	mi-
4B-\	-se-	4B-\	-se-	4G/	-se-	4e\	-se-	4cc\	-se-
=47	=47	=47	=47	=47	=47	=47	=47	=47	=47
4A\	-re-	4A\	-re-	4A\	-re-	4f\	-re-	4dd\	-re-
4G\	.	4G\	.	4B-\	.	4g\	.	4ee\	.
4F\	.	4F\	.	2A\	-re	4a\	.	4dd\	.
4E\	-re	4E\	-re	.	.	4g\	-re	4cc#X\	-re
=48	=48	=48	=48	=48	=48	=48	=48	=48	=48
4D\	no-	4D\	no-	1A	no-	2f\	no-	2dd\	no-
4F\	.	4F\	.	.	.	.	.	.	.
4A\	.	4A\	.	.	.	2e\	.	2cc\	.
4AA/	.	4AA/	.	.	.	.	.	.	.
=49	=49	=49	=49	=49	=49	=49	=49	=49	=49
2D/	-bis.	2D/	-bis.	2A/	-bis	2f\	-bis,	2dd\	-bis,
2A\	qui-	2A\	qui-	2G/	qui-	2e\	qui-	2cc#X\	qui-
!	!	!LO:LB:g=original	!	!	!	!	!	!	!
=50	=50	=50	=50	=50	=50	=50	=50	=50	=50
4d\	-tol-	4d\	-tol-	2A\	-tol-	4f\	-tol-	4dd\	-tol-
4A\	.	4A\	.	.	.	4e\	.	4cc\	-lis
4F\	-lis	4F\	-lis	4A\	-lis	4a\	-lis	4dd\	.
4E\	pec-	4E\	pec-	4B-X\	pec-	4g\	pec-	4cc\	pec-
=51	=51	=51	=51	=51	=51	=51	=51	=51	=51
4D/	-ca-	4D/	-ca-	2A\	-ca-	4f\	-ca-	2a\	-ca-
4C#X/	.	4C#X/	.	.	.	4e\	.	.	.
2D/	-ta	2D/	-ta	2A\	-ta	2f\	-ta	2a\	-ta
=52	=52	=52	=52	=52	=52	=52	=52	=52	=52
2C#X/	mun-	2C#X/	mun-	2A\	mun-	2e\	mun-	2a\	mun-
2C#/	-di	2C#/	-di	2A\	-di	2e\	-di	2a\	-di
=53	=53	=53	=53	=53	=53	=53	=53	=53	=53
!LO:SIC:v:s=4.C#/	!	!	!	!	!	!	!	!	!
4.C/	sus-	4.C#X/	sus-	4.G/	sus-	4.e\	sus-	4.a\	sus-
8BB-/	-ci-	8BB-/	-ci-	8G/	-ci-	8d\	-ci-	8b-\	-ci-
2AA/	-pe	2AA/	-pe	2G/	-pe	2c#X\	-pe	2cc#X\	-pe
!	!	!	!	!LO:LB:g=original	!	!LO:LB:g=original	!	!LO:LB:g=original	!
=54	=54	=54	=54	=54	=54	=54	=54	=54	=54
*	*ij	*	*ij	*	*ij	*	*ij	*	*ij
4.D\	sus-	4.D\	sus-	4.A/	sus-	4.f\	sus-	4.a\	sus-
8E\	-ci-	8E\	-ci-	8G/	-ci-	8g\	-ci-	8a\	-ci-
2F\	-pe	2F\	-pe	2F/	-pe	2a\	-pe	2dd\	-pe
*	*Xij	*	*Xij	*	*Xij	*	*Xij	*	*Xij
!LO:LB:g=original	!	!	!	!	!	!	!	!	!
=55	=55	=55	=55	=55	=55	=55	=55	=55	=55
2G\	de-	2G\	de-	2c#X\	de-	2b-\	de-	2ee\	de-
2F\	-pre-	2F\	-pre-	2d\	-pre-	2a\	-pre-	2dd\	-pre-
=56	=56	=56	=56	=56	=56	=56	=56	=56	=56
2E\	-ca-	2E\	-ca-	2A/	-ca-	2g\	-ca-	2cc#X\	-ca-
2D\	-ti-	2D\	-ti-	2A/	-ti-	2f\	-ti-	2dd\	-ti-
=57	=57	=57	=57	=57	=57	=57	=57	=57	=57
2C#X/	-o-	2C#X/	-o-	2G/	-o-	2e\	-o-	2a\	-o-
2D/	-nem	2D/	-nem	2A/	-nem	2f\	-nem	2a\	-nem
!	!	!LO:LB:g=original	!	!	!	!	!	!	!
=58	=58	=58	=58	=58	=58	=58	=58	=58	=58
2A\	no-	2A\	no-	1A	nos-	2f\	no-	2dd\	no-
2AA/	.	2AA/	.	.	.	2e\	.	2cc#X\	.
=59	=59	=59	=59	=59	=59	=59	=59	=59	=59
2D/	-stram,	2D/	-stram,	2A/	-tram	2f\	-stram,	2dd\	-stram,
2Cn/	qui	2Cn/	qui	2B-X\	qui	2g\	qui	2ee\	qui
=60	=60	=60	=60	=60	=60	=60	=60	=60	=60
4F\	se-	4F\	se-	4A\	se-	4a\	se-	4ccn\	se-
4G\	.	4G\	.	4B-\	.	4g\	.	4b-\	.
4A\	-des	4A\	-des	4c\	-des	4f\	-des	4a\	-des
4F\	ad	4F\	ad	4A\	ad	4a\	ad	4cc\	ad
=61	=61	=61	=61	=61	=61	=61	=61	=61	=61
4C/	dex-	4C/	dex-	4G/	dex-	4g\	dex-	4b-\	dex-
4D/	.	4D/	.	4A/	.	4f\	.	4a\	.
4E/	-te-	4E/	-te-	4B-/	-te-	4e\	-te-	4g\	-te-
4C/	-ram	4C/	-ram	4G/	-ram	4g\	-ram	4b-\	-ram
!	!	!	!	!LO:LB:g=original	!	!	!	!	!
=62	=62	=62	=62	=62	=62	=62	=62	=62	=62
4F\	Pa-	4F\	Pa-	1F	Pa-	1f	Pa-	1a	Pa-
4c\	.	4c\	.	.	.	.	.	.	.
4A\	.	4A\	.	.	.	.	.	.	.
4F\	.	4F\	.	.	.	.	.	.	.
!	!	!	!	!	!	!LO:LB:g=original	!	!	!
=63	=63	=63	=63	=63	=63	=63	=63	=63	=63
2C/	-tris	2C/	-tris	2c\	-tris	2e\	-tris	2g\	-tris
2r	.	2r	.	2r	.	2r	.	2r	.
!	!	!	!	!	!	!	!	!LO:LB:g=original	!
=64	=64	=64	=64	=64	=64	=64	=64	=64	=64
2B-X\	mi-	2B-X\	mi-	2c\	mi-	2g\	mi-	2ee\	mi-
2G\	-se-	2G\	-se-	2B-\	-se-	2e\	-se-	2cc\	-se-
!LO:LB:g=original	!	!LO:LB:g=original	!	!	!	!	!	!	!
=65	=65	=65	=65	=65	=65	=65	=65	=65	=65
4A\	-re-	4A\	-re-	4A\	-re-	4f\	-re-	2cc\	-re-
4G\	.	4G\	.	4c\	.	4b-\	.	.	.
4E\	.	4E\	.	4B-\	.	4g\	.	2cc\	-re
4F\	-re	4F\	-re	4A\	-re	4a\	-re	.	.
=66	=66	=66	=66	=66	=66	=66	=66	=66	=66
1C	no-	1C	no-	2c\	no-	2a\	no-	2ff\	no-
.	.	.	.	2B-X\	.	2g\	.	2ee\	.
=67	=67	=67	=67	=67	=67	=67	=67	=67	=67
2F\	-bis	2F\	-bis	2A\	-bis	2f\	-bis	2cc\	-bis.
2r	.	2r	.	2r	.	2r	.	2r	.
=68	=68	=68	=68	=68	=68	=68	=68	=68	=68
4.F\	Quo-	4.F\	Quo-	4.A\	Quo-	4.a\	Quo-	4.cc\	Quo-
8G\	-ni-	8G\	-ni-	8B-\	-ni-	8g\	-ni-	8b-\	-ni-
4A\	-am	4A\	-am	4c\	-am	4f\	-am	4a\	-am
4G\	tu	4G\	tu	4B-\	tu	4g\	tu	4b-\	tu
!	!	!	!	!LO:LB:g=original	!	!	!	!	!
=69	=69	=69	=69	=69	=69	=69	=69	=69	=69
4F\	so-	4F\	so-	4A\	so-	4a\	so-	2cc\	so-
4E\	.	4E\	.	4B-\	.	4g\	.	.	.
2F\	-lus	2F\	-lus	2A\	-lus	2a\	-lus	2cc\	-lus
=70	=70	=70	=70	=70	=70	=70	=70	=70	=70
2F\	tu	2F\	tu	2A\	tu	2a\	tu	2cc\	tu
4BB-/	so-	4BB-/	so-	4B-\	so-	4g\	so-	4b-\	so-
4BBn/	-lus	4BBn/	-lus	4Bn\	-lus	4f\	-lus	4a\	-lus
!	!	!	!	!	!	!LO:LB:g=original	!	!	!
=71	=71	=71	=71	=71	=71	=71	=71	=71	=71
2C/	San-	2C/	San-	2c\	San-	2f\	San-	2a\	S(an)-
2C/	-ctus	2C/	-ctus	2G/	-ctus,	2e\	-ctus,	2g\	-ctus
!	!	!LO:LB:g=original	!	!	!	!	!	!	!
=72	=72	=72	=72	=72	=72	=72	=72	=72	=72
2E\	tu	2E\	tu	2c\	tu	2g\	tu	2b-\	tu
4D\	so-	4D\	so-	4c\	so-	4f\	so-	4b-\	so-
4C\	-lus	4C\	-lus	4c\	-lus	4e\	-lus	4b-\	-lus
!	!	!	!	!	!	!	!	!LO:LB:g=original	!
=73	=73	=73	=73	=73	=73	=73	=73	=73	=73
4.F\	Do-	4.F\	Do-	4.c\	Do-	4.f\	do-	4.a\	Do-
8F\	-mi-	8F\	-mi-	8B-\	-mi-	8g\	-mi-	8b-\	-mi-
4F\	-nus,	4F\	-nus,	4A\	-nus	4a\	-nus,	4cc\	-nus
4F\	tu	4F\	tu	4A\	tu	4a\	tu	4cc\	tu
!LO:PB:g=original	!	!	!	!	!	!	!	!	!
=74	=74	=74	=74	=74	=74	=74	=74	=74	=74
4E\	so-	4E\	so-	4B-\	so-	4g\	so-	2b-\	so-
4C\	.	4C\	.	4G\	.	4e\	.	.	.
4F\	-lus	4F\	-lus	4c\	-lus	4f\	-lus	4a\	-lus
8A\L	al-	8A\L	al-	4c\	al-	4f\	al-	4a\	al-
8B-\J	.	8B-\J	.	.	.	.	.	.	.
=75	=75	=75	=75	=75	=75	=75	=75	=75	=75
4.c\	-tiſ-	4.c\	-tiſ-	4.e\	-tiſ-	4.g\	-tiſ-	4.cc\	-tiſ-
8C/	-si-	8C/	-si-	8e\	-si-	8g\	-si-	8cc\	-si-
2C/	-mus,	2C/	-mus	2e\	-mus	2g\	-mus	2cc\	-mus
!	!	!	!	!LO:LB:g=original	!	!	!	!	!
=76	=76	=76	=76	=76	=76	=76	=76	=76	=76
2C#X/	Je-	2C#X/	Je-	2e\	Je-	2g\	Je-	2b-X\	Je-
2C#/	-su	2C#/	-su	2e\	-su	2g\	-su	2b-\	-su
=77	=77	=77	=77	=77	=77	=77	=77	=77	=77
4D\	Chri-	4D\	Chri-	2d\	Chri-	2f\	Chri-	1a	Chri-
4F\	.	4F\	.	.	.	.	.	.	.
4A\	.	4A\	.	2c#X\	.	2e\	.	.	.
4AA/	.	4AA/	.	.	.	.	.	.	.
!	!	!	!	!	!	!LO:LB:g=original	!	!	!
=78	=78	=78	=78	=78	=78	=78	=78	=78	=78
2D/	-ste.	2D/	-ste.	2d\	-ste.	2f\	-ste.	2a\	-ste,
2Cn/	Cum	2Cn/	Cum	2e\	Cum	2g\	Cum	2b-X\	Cum
!	!	!LO:LB:g=original	!	!	!	!	!	!	!
=79	=79	=79	=79	=79	=79	=79	=79	=79	=79
4F\	San-	4F\	San-	4cn\	San-	4a\	San-	4a\	San-
4G\	.	4G\	.	4B-\	.	4g\	.	4b-\	.
4A\	.	4A\	.	4A\	.	4f\	.	4cc\	.
4F\	-cto	4F\	-cto	4c\	-cto	4a\	-cto	4a\	-cto
=80	=80	=80	=80	=80	=80	=80	=80	=80	=80
4E\	Spi-	4E\	Spi-	4G/	Spi-	4g\	Spi-	4cc\	Spi-
4D\	-ri-	4D\	-ri-	4G/	-ri-	4f\	-ri-	4cc\	-ri-
4C/	-tu	4C\	-tu	4G/	-tu	4e\	-tu	4cc\	-tu
4C/	in	4C\	in	4G/	in	4e\	in	4cc\	in
!	!	!	!	!	!	!	!	!LO:LB:g=original	!
=81	=81	=81	=81	=81	=81	=81	=81	=81	=81
4F\	glo-	4F\	glo-	4A/	glo-	4f\	glo-	4cc\	glo-
8c\	-ri-	8c\	-ri-	8F/	-ri-	8a\	-ri-	8cc\	-ri-
8c\	-a	8c\	-a	8F/	-a	8a\	-a	8cc\	-a
4A\	De-	4A\	De-	4c\	De-	4f\	De-	4a\	De-
4F\	-i	4F\	-i	4A\	-i	4a\	-i	4cc\	-i
!LO:LB:g=original	!	!	!	!LO:LB:g=original	!	!	!	!	!
=82	=82	=82	=82	=82	=82	=82	=82	=82	=82
4E\	Pa-	4E\	Pa-	2B-\	Pa-	2g\	Pa-	2cc\	Pa-
4C\	.	4C\	.	.	.	.	.	.	.
2F\	-tris	2F\	-tris	2A\	-tris	2f\	-tris	2cc\	-tris
=83	=83	=83	=83	=83	=83	=83	=83	=83	=83
2BB-/	a-	2BB-/	a-	2B-\	a-	2g\	a-	2ee\	a-
2C/	.	2C/	.	2G/	.	2e\	.	2cc\	.
=84	=84	=84	=84	=84	=84	=84	=84	=84	=84
2F\	-men	2F\	-men	2A/	-men	2f\	-men	2cc\	-men
2r	.	2r	.	2r	.	2r	.	2r	.
!	!	!	!	!	!	!LO:LB:g=original	!	!	!
=85	=85	=85	=85	=85	=85	=85	=85	=85	=85
4BB-/	a-	4BB-/	a-	1B-	a-	1f	a-	1dd	a-
4C/	.	4C/	.	.	.	.	.	.	.
4D/	.	4D/	.	.	.	.	.	.	.
4E/	.	4E/	.	.	.	.	.	.	.
=86	=86	=86	=86	=86	=86	=86	=86	=86	=86
2F\	.	2F\	.	4A\	.	4a\	.	4cc\	.
.	.	.	.	4B-\	.	4g\	.	4b-\	.
2F\	-men	2F\	-men	4c\	.	4f\	.	4a\	.
.	.	.	.	4A\	-men	4a\	-men	4cc\	.
=87	=87	=87	=87	=87	=87	=87	=87	=87	=87
2B-\	a-	2B-\	a-	2B-\	a-	2g\	a-	1cc	.
2c\	.	2c\	.	2G/	.	2e\	.	.	.
=88	=88	=88	=88	=88	=88	=88	=88	=88	=88
2F\	-men	2F\	-men	2A\	-men	2f\	-men	2cc\	-men
*	*	*	*ij	*	*	*	*	*	*
2C/	a-	2C/	a-	2c\	a-	2g\	a-	2cc\	a-
=89	=89	=89	=89	=89	=89	=89	=89	=89	=89
1FF;	-men	1FF	-men	1c	-men	2a\	-men	2cc\	-men
*	*	*	*Xij	*	*	*	*	*	*
.	.	.	.	.	.	2r	.	2r	.
!LO:LB:g=original	!	!LO:PB:g=original	!	!LO:PB:g=original	!	!LO:LB:g=original	!	!LO:PB:g=original	!
==	==	==;;	==	==;;	==	==;;	==	==;;	==
*-	*-	*-	*-	*-	*-	*-	*-	*-	*-
!!!system-decoration: [(s1,s2,s3,s4)]s5
!!!ENC: Berenika Jozajtis
!!!END: 2024-02-27
!!!EED: Marta Chmielewska
!!!EEV: 2024-05-02
